X: 39517
T: Taureen Derby
R: polka
M: 2/4
K: Edorian
|:BE FE|BE FE|D2 FA|DE FA|
BE FE|BE FE|D2 FA|FE E2:|
|:ef/e/ dB|ef/e/ dB|AF dF|AB/c/ d2|
ef/e/ dB|ef/e/ dB|AF dF|FE E2:|

